X: 797
T: Fandui maimai huenyen
%%abc-version 2.0
%%abcx-abcm2ps-target-version 5.9.1 (29 Sep 2008)
%%abc-creator hum2abc beta
%%abcx-conversion-date 2013/10/02 07:52:31
%%abc-edited-by Helmut Schaffrath
%%humdrum-veritas 2652122079
%%humdrum-veritas-data 1224205274
%%continueall 1
%%barnumbers 0
L: 1/8
M: 2/4
K: F
c d c d [I:setbarnb 1]| 
f dc2- | 
c2c d | 
c d B A | 
G4 | 
G A c A | 
c dc2 | 
E DC2 | 
c A G A | 
C D F G | 
E DC2- | 
C2z2 |]  



